X: 907
T: The handsome plowboy
C: anon.
O: Ireland
B: Francis O'Neill: "The Dance Music of Ireland" (1907) no. 907
R: Hornpipe
Z: Transcribed by Frank Nordberg - http://www.musicaviva.com
F: http://www.musicaviva.com/abc/tunes/ireland/oneill-1001/oneill-1001-090
7.abc
M: 2/4
L: 1/16
K: A
E2|A2A2 AcBA|G2B2 BdcB|A2A2 Acea|gfed cBAG|A2A2 AcBA|G2B2 BdcB|Adea gfed|
c2A2A2:|
|:(3(efg)|aece aece|afdf afdf|bgeg bgeg|agfe dcBA|ceAe|ceAe dfBf dfBf|ceg
f edBG|A2A2A2:|
W:
W:
W: From Musica Viva - http://www.musicaviva.com
W: the Internet center for free sheet music downloads.


